img/icons/vk.svg

<svg width="49" height="49" viewBox="0 0 49 49" fill="none" xmlns="http://www.w3.org/2000/svg">
<path d="M24.4894 0.738281C11.196 0.738281 0.419922 11.5144 0.419922 24.8078C0.419922 38.1011 11.196 48.8772 24.4894 48.8772C37.7828 48.8772 48.5589 38.1011 48.5589 24.8078C48.5589 11.5144 37.7828 0.738281 24.4894 0.738281ZM33.7461 27.8942C33.7461 27.8942 35.8748 29.9952 36.3988 30.9705C36.4138 30.9923 36.423 31.009 36.4263 31.0207C36.6386 31.3767 36.6913 31.6584 36.5843 31.8656C36.4088 32.2116 35.8071 32.3821 35.6015 32.3972H31.8406C31.5799 32.3972 31.0333 32.3295 30.3714 31.8731C29.8624 31.5171 29.361 30.9329 28.872 30.3638C28.1424 29.5163 27.5106 28.7842 26.8738 28.7842C26.7929 28.7839 26.7124 28.7966 26.6356 28.8218C26.1542 28.9773 25.5374 29.6643 25.5374 31.4945C25.5374 32.0662 25.0861 32.3946 24.7677 32.3946H23.0452C22.4585 32.3946 19.4022 32.1891 16.6944 29.3333C13.3798 25.8357 10.3962 18.8205 10.3711 18.7553C10.1831 18.3015 10.5717 18.0583 10.9954 18.0583H14.7939C15.3004 18.0583 15.4658 18.3667 15.5812 18.6399C15.7166 18.9584 16.213 20.2245 17.0279 21.6486C18.3492 23.9703 19.159 24.9131 19.8084 24.9131C19.9301 24.9116 20.0497 24.8806 20.1569 24.8228C21.0043 24.3514 20.8464 21.3302 20.8088 20.7034C20.8088 20.5856 20.8063 19.352 20.3725 18.7603C20.0616 18.3316 19.5326 18.1686 19.2117 18.1084C19.3416 17.9292 19.5127 17.7838 19.7106 17.6847C20.2923 17.3939 21.3403 17.3512 22.3808 17.3512H22.96C24.0882 17.3663 24.3791 17.439 24.7878 17.5418C25.6151 17.7399 25.6327 18.2739 25.56 20.1017C25.5374 20.6207 25.5149 21.2074 25.5149 21.8994L25.5073 22.3807C25.4823 23.3109 25.4522 24.3665 26.1091 24.8002C26.1938 24.8561 26.2934 24.8849 26.3949 24.883C26.623 24.883 27.31 24.883 29.1704 21.6913C29.742 20.6628 30.2405 19.5955 30.6622 18.497C30.6998 18.4318 30.8101 18.2313 30.9405 18.1535C31.0377 18.1073 31.1438 18.0825 31.2514 18.0808H35.7168C36.2032 18.0808 36.5367 18.1535 36.5993 18.3416C36.7097 18.6399 36.5793 19.5501 34.5409 22.3105L33.6308 23.5115C31.7829 25.9335 31.7829 26.0564 33.7461 27.8942Z" fill="#4065D6"/>
</svg>

<svg width="49" height="49" fill="none" xmlns="http://www.w3.org/2000/svg"><path d="M24.49.738C11.195.738.42 11.514.42 24.808c0 13.293 10.776 24.07 24.07 24.07 13.293 0 24.069-10.777 24.069-24.07 0-13.294-10.776-24.07-24.07-24.07zm9.256 27.156s2.129 2.101 2.653 3.077a.196.196 0 01.027.05c.213.356.265.637.158.845-.175.346-.777.516-.983.531h-3.76c-.261 0-.808-.067-1.47-.524-.509-.356-1.01-.94-1.499-1.51-.73-.847-1.361-1.579-1.998-1.579a.755.755 0 00-.238.038c-.482.155-1.099.842-1.099 2.672 0 .572-.45.9-.77.9h-1.722c-.587 0-3.643-.205-6.35-3.06-3.315-3.498-6.299-10.514-6.324-10.579-.188-.453.2-.697.624-.697h3.799c.506 0 .672.309.787.582.136.318.632 1.584 1.447 3.009 1.321 2.321 2.131 3.264 2.78 3.264a.754.754 0 00.349-.09c.847-.472.69-3.493.652-4.12 0-.117-.003-1.351-.437-1.943-.31-.428-.84-.591-1.16-.652.13-.179.3-.324.499-.423.581-.291 1.63-.334 2.67-.334h.579c1.128.015 1.42.088 1.828.19.827.199.845.733.772 2.56a39.822 39.822 0 00-.045 1.798l-.008.482c-.025.93-.055 1.985.602 2.42a.502.502 0 00.286.082c.228 0 .915 0 2.775-3.192a25.074 25.074 0 001.492-3.194c.038-.065.148-.266.279-.343a.752.752 0 01.31-.073h4.466c.486 0 .82.073.882.26.11.299-.02 1.21-2.058 3.97l-.91 1.2c-1.848 2.422-1.848 2.545.115 4.383z" fill="#4065D6"/></svg>
